!!!COM: Bach, Johann Sebastian
!!!CDT: 1685/02/21/-1750/07/28/
!!!OTL@@DE:	Erschienen ist der herrliche Tag
!!!SCT: BWV 145/5
!!!PC#:	17
!!!AGN: chorale
**harm	**kern	**kern	**kern	**kern
*	*ICvox	*ICvox	*ICvox	*ICvox
*	*Ibass	*Itenor	*Ialto	*Isoprn
*	*I"Bass	*I"Tenor	*I"Alto	*I"Soprano
*	*	*oclefC4	*oclefC3	*oclefC1
*	*clefF4	*clefGv2	*clefG2	*clefG2
*k[f#]	*k[f#]	*k[f#]	*k[f#]	*k[f#]
*e:	*e:	*e:	*e:	*e:
*M3/4	*M3/4	*M3/4	*M3/4	*M3/4
*MM100	*MM100	*MM100	*MM100	*MM100
=1-	=1-	=1-	=1-	=1-
i	4E	4G	4B	4e
i6	4G	4B	4B	4e
IV	4A	4A	4c#	4e
=2	=2	=2	=2	=2
A:ii2	4A	4F#	4d	4b
V6	4G#	4B	4e	4b
I	4A	4A	4e	4cc#
=3	=3	=3	=3	=3
IV6	4F#	4A	4f#	4dd
IV7	4D	4F#	4a	4cc#
V	4E	4B	4g#	4b
=4	=4	=4	=4	=4
I;	2.AA;	2.c#;	2.e;	2.a;
=5	=5	=5	=5	=5
V6	4G#	4B	4e	4b
I	4A	4A	4e	4cc#
e:viio6	4F#	4A	4f#	4dd#
=6	=6	=6	=6	=6
i	4E	4B	4gnX	4ee
i	4E	4B	4g	4ee
i6	4GnX	4B	4e	4b
=7	=7	=7	=7	=7
b:V(64)	4F#	4B	4f#	4dd
ii%65	4E	4b	4g	4cc#
V	4F#	4A#	4f#	4cc#
=8	=8	=8	=8	=8
I;	2BB;	2F#;	2d#;	2b;
e:i	4E	4G	4e	4b
=9	=9	=9	=9	=9
VII6	4F#	4A	4dnX	4dd
G:V65	4F#	4A	4d	4cc
I	4G	4G	4d	4b
=10	=10	=10	=10	=10
D:V6	4C#	4E	4e	4a
V65	4C#	4A	4e	4g
I	4D	4A	4d	4f#
=11	=11	=11	=11	=11
IV6	4BB	4G	4d	4g
ii65	4GG	4B	4d	4e
V7	4AA	4G	4c#	4e
=12	=12	=12	=12	=12
I;	2D;	2F#;	2A;	2d;
vi	4BB	4F#	4B	4d
=13	=13	=13	=13	=13
ii	4E	4G	4B	4g
e:VI6	4E	4c	4e	4g
V65/III	4F#	4c	4d	4a
=14	=14	=14	=14	=14
III	4G	4B	4d	4b
V65	2D#	2B	2f#	2a
=15	=15	=15	=15	=15
i	4E	4B	4e	4g
v	4B	4d	4f#	4dd
V6/III	4F#	4d	4a	4dd
=16	=16	=16	=16	=16
III;	2G;	2d;	2g;	2b;
iio6	4A	4c	4f#	4a
=17	=17	=17	=17	=17
V(64)	4B	4B	4e	4g
V7	2BB	2A	2d#	2f#
=18	=18	=18	=18	=18
I;	2.E;	2.G#;	2.B;	2.e;
==	==	==	==	==
*-	*-	*-	*-	*-
!!!YOR1: 371 vierstimmige Choralges&auml;nge von Johann Sebastian Bach, 
!!!YOR2: 4th ed. by Alfred D&ouml;rffel (Leipzig: Breitkopf und H&auml;rtel, 
!!!YOR2: c.1875). 178 pp. Plate "V.A.10".  reprint: J.S. Bach, 371 Four-Part 
!!!YOR4: Chorales (New York: Associated Music Publishers, Inc., c.1940).
!!!SMS: B&H, 4th ed, Alfred D&ouml;rffel, c.1875, plate V.A.10
!!!EED:  Craig Stuart Sapp
!!!EEV:  2009/05/22
